swiss/communes/0666.svg

<?xml version="1.0" encoding="UTF-8" standalone="no"?>
<!-- Created with Inkscape (http://www.inkscape.org/) -->
<svg
   xmlns:svg="http://www.w3.org/2000/svg"
   xmlns="http://www.w3.org/2000/svg"
   version="1.0"
   width="180.61255"
   height="210.19347"
   id="svg2810">
  <defs
     id="defs2812">
    <clipPath
       id="clipPath4039">
      <path
         d="M -0.138,841.445 L 595.138,841.445 L 595.138,-0.445 L -0.138,-0.445 L -0.138,841.445 z"
         id="path4041" />
    </clipPath>
    <clipPath
       id="clipPath4045">
      <path
         d="M 0.029999,841.95 L 595.29,841.95 L 595.29,0.03 L 0.029999,0.03 L 0.029999,841.95 z"
         id="path4047" />
    </clipPath>
  </defs>
  <path
     d="M 90.309645,209.90952 C 41.308125,209.90952 1.5950051,172.18292 1.5950051,125.65068 L 1.5950051,2.7695098 L 91.061095,2.7695098 C 90.635765,3.6544998 91.804805,210.64916 90.309645,209.90952 z"
     id="path245"
     style="fill:#ffffff;fill-opacity:1;stroke:none;stroke-width:3.05345011;stroke-linecap:butt;stroke-linejoin:miter;stroke-miterlimit:4;stroke-dasharray:none;stroke-opacity:1" />
  <path
     d="M 91.897915,208.79027 C 140.89944,208.79027 180.61256,171.06367 180.61256,124.53143 L 180.61256,1.6502598 L 91.146465,1.6502598 C 91.571795,2.5352498 90.402755,209.52991 91.897915,208.79027 z"
     id="path3231"
     style="fill:#0092c5;fill-opacity:1;stroke:none;stroke-width:3.05345011;stroke-linecap:butt;stroke-linejoin:miter;stroke-miterlimit:4;stroke-dasharray:none;stroke-opacity:1" />
  <g
     transform="translate(-189.13269,2.7786498)"
     id="g3428">
    <path
       d="M 280.64512,204.15381 C 272.97766,200.20464 273.10696,191.97151 270.10391,186.46044 C 261.75697,188.29809 252.51563,182.94406 245.86381,194.37557 C 240.88778,183.39582 250.64567,179.84743 262.11145,177.25007 C 239.86319,167.45618 230.87815,173.72358 229.91456,181.21926 C 220.34117,160.34479 242.20411,164.49305 260.20999,167.662 C 267.6496,167.52586 273.16507,161.30998 271.48775,147.49845 C 267.38822,142.47831 260.41056,139.47118 257.22307,138.09923 C 259.09943,150.46603 258.08564,158.84071 239.14628,157.63205 C 224.43586,157.81673 224.31484,144.74791 207.77224,136.99086 C 220.05118,130.73313 225.2132,111.86246 241.41155,111.76137 C 255.57459,112.28727 255.78419,120.27613 254.6039,130.73006 C 259.55086,131.42407 267.12779,134.95145 272.07475,137.47335 L 272.30371,111.64194 C 264.05877,100.11132 254.10874,96.325349 245.86381,90.489451 C 249.73561,104.41657 235.49735,109.1095 228.66611,107.65085 C 212.0944,104.11234 212.41802,89.945911 199.36241,77.62736 C 216.43627,72.155908 216.4526,60.57968 238.44338,61.797094 C 252.23574,61.896752 253.50724,78.845623 245.98941,85.341432 C 255.37379,92.170692 265.43336,93.851457 272.10145,102.49989 C 272.51937,102.29765 272.89535,87.453005 272.66111,81.482458 C 259.61537,65.508827 248.00749,55.40744 236.46459,43.969297 C 230.95221,51.613439 227.22956,63.445012 211.23511,55.366048 C 200.56905,44.429071 205.78041,29.900611 198.39177,16.541802 C 218.88347,18.087411 218.29168,9.4810153 238.38772,17.482726 C 249.31326,24.749266 251.76652,34.530384 239.55176,40.543922 C 250.73912,51.635297 262.5063,61.39736 272.7984,70.410521 C 273.33591,69.781732 274.30557,52.895695 274.14565,44.893716 C 273.60068,45.248849 255.29665,51.953228 252.99226,37.574856 C 252.56466,24.877392 271.67974,12.829823 279.23486,1.7124808 L 280.64512,204.15381 z"
       id="path3240"
       style="fill:#1b1a1c;fill-opacity:1;fill-rule:evenodd;stroke:#1b1a1c;stroke-width:2;stroke-linecap:butt;stroke-linejoin:miter;stroke-miterlimit:4;stroke-dasharray:none;stroke-opacity:1" />
    <path
       d="M 235.74794,40.823922 C 231.83938,46.146678 234.14526,52.668711 221.94972,56.106667 C 198.98056,57.154866 208.83204,31.085523 200.44454,17.965398 C 213.96981,19.04742 226.02907,7.9126005 241.02036,21.211464 C 253.22273,33.830426 240.11504,36.301995 235.74794,40.823922 z"
       id="path3244"
       style="fill:#00a43f;fill-opacity:1;fill-rule:evenodd;stroke:none;stroke-width:1px;stroke-linecap:butt;stroke-linejoin:miter;stroke-opacity:1" />
    <path
       d="M 278.76868,41.515847 C 273.69569,43.745943 268.9547,46.996804 262.92031,46.663179 C 257.30901,45.915015 253.10616,41.081388 254.11566,34.201217 C 257.79012,20.675345 272.34862,14.592999 278.76868,4.5363281 L 278.76868,41.515847 z"
       id="path3246"
       style="fill:#00a43f;fill-opacity:1;fill-rule:evenodd;stroke:none;stroke-width:1px;stroke-linecap:butt;stroke-linejoin:miter;stroke-opacity:1" />
    <path
       d="M 242.6019,85.945452 C 251.18131,80.267321 251.72094,69.6796 245.44648,66.84614 C 222.58818,55.846983 216.95554,75.199267 201.69415,77.953541 C 214.91741,88.43117 211.06123,100.26785 228.78537,106.53478 C 245.52221,105.31901 246.69442,96.857645 242.6019,85.945452 z"
       id="path3248"
       style="fill:#00a43f;fill-opacity:1;fill-rule:evenodd;stroke:none;stroke-width:1px;stroke-linecap:butt;stroke-linejoin:miter;stroke-opacity:1" />
    <path
       d="M 210.63425,136.87695 C 220.93989,128.88279 225.50726,114.19399 241.78916,113.17213 C 256.73142,112.95023 254.45299,124.76364 253.16747,132.27144 C 257.81359,142.19343 257.936,152.88149 251.27109,155.70535 C 229.927,164.53243 224.13462,144.03311 210.63425,136.87695 z"
       id="path3250"
       style="fill:#00a43f;fill-opacity:1;fill-rule:evenodd;stroke:none;stroke-width:1px;stroke-linecap:butt;stroke-linejoin:miter;stroke-opacity:1" />
    <path
       d="M 216.67486,26.48632 C 239.70844,37.650778 254.57888,56.236282 273.07525,71.525477 C 274.38898,53.40727 273.63067,34.250784 279.10153,19.873991 L 280.14765,202.24062 C 272.0777,198.52262 273.57813,189.38446 271.85798,182.70322 C 263.85598,187.40577 252.47622,184.06915 245.07794,191.6299 C 242.52056,175.42399 262.97081,182.27946 271.45222,174.58805 C 254.9069,180.03407 236.43323,161.65112 229.60665,181.25469 C 218.49658,154.09563 254.9425,171.50283 264.96009,168.50168 C 273.98116,161.96507 271.66736,154.30778 271.63099,146.47725 C 265.13602,138.30969 253.54496,131.66412 230.8764,133.20072 C 244.63643,130.64827 258.45061,129.50359 272.66949,138.88133 L 272.26373,111.28978 C 254.9544,92.207061 234.84333,84.33132 213.83456,80.046399 C 238.63025,79.115724 256.13247,90.340841 272.66949,103.17461 L 273.07525,81.669432 C 254.60139,63.037772 239.68731,41.817183 216.67486,26.48632 z"
       id="path3252"
       style="fill:#00a43f;fill-opacity:1;fill-rule:evenodd;stroke:#1b1a1c;stroke-width:1.29999995;stroke-linecap:butt;stroke-linejoin:miter;stroke-miterlimit:4;stroke-dasharray:none;stroke-opacity:1" />
  </g>
  <g
     transform="translate(-369.84083,3.2629198)"
     id="g3449">
    <path
       d="M 460.86544,129.28034 C 469.5104,129.5223 471.52041,123.21607 478.35223,123.69405 C 488.26775,124.16685 487.98657,129.24492 494.3914,128.59614 C 505.38375,128.7894 503.35274,122.47999 513.20699,122.78041 C 521.1064,123.27799 523.80523,129.29001 531.68047,128.93824 C 539.00642,129.30323 541.01474,121.38723 549.12766,122.78041 L 548.02213,62.188813 C 537.63533,63.289978 535.42997,69.43124 527.57525,69.070457 C 521.44462,69.267804 518.00238,63.680885 510.47017,64.281035 C 501.9519,64.037161 500.18521,70.240329 491.8048,69.982043 C 484.38007,69.859002 483.24542,64.372178 475.2337,64.281035 C 470.12283,63.514587 468.5438,68.4512 460.48578,69.030845 L 460.86544,129.28034 z"
       id="path3242"
       style="fill:#ffffff;fill-rule:evenodd;stroke:none;stroke-width:1px;stroke-linecap:butt;stroke-linejoin:miter;stroke-opacity:1" />
    <path
       d="M 460.49352,88.444814 C 468.14961,88.514337 469.38433,83.77167 475.78061,83.852641 C 483.03939,84.316919 485.27011,89.253545 492.72394,90.078484 C 499.4003,90.003866 498.78908,84.289213 510.92135,83.443714 C 519.34915,83.606207 519.11176,89.356811 529.53626,88.515783 C 537.95329,88.201754 538.66268,82.26398 547.87857,81.498466"
       id="path3254"
       style="fill:none;fill-rule:evenodd;stroke:#000000;stroke-width:1.29999995;stroke-linecap:butt;stroke-linejoin:miter;stroke-miterlimit:4;stroke-dasharray:none;stroke-opacity:1" />
    <path
       d="M 460.70191,107.91131 C 468.358,107.98084 469.59272,103.23817 475.989,103.31914 C 483.24778,103.78342 485.4785,108.72004 492.93233,109.54498 C 499.60869,109.47037 498.99747,103.75571 511.12974,102.91021 C 519.55754,103.07271 519.32015,108.82331 529.74465,107.98228 C 538.16168,107.66825 538.87107,101.73048 548.08696,100.96497"
       id="path3262"
       style="fill:none;fill-rule:evenodd;stroke:#000000;stroke-width:1.29999995;stroke-linecap:butt;stroke-linejoin:miter;stroke-miterlimit:4;stroke-dasharray:none;stroke-opacity:1" />
    <path
       d="M 460.56298,68.317128 C 468.21907,68.386658 469.45379,63.643988 475.85007,63.724958 C 483.10885,64.189238 485.20064,68.431233 492.65447,69.256163 C 499.33083,69.181553 498.85854,64.161528 510.99081,63.316028 C 519.41861,63.478528 521.54298,68.812347 528.4943,67.971317 C 536.91133,67.657287 538.73214,62.136298 547.94803,61.370788"
       id="path3264"
       style="fill:none;fill-rule:evenodd;stroke:#000000;stroke-width:1.79999995;stroke-linecap:butt;stroke-linejoin:miter;stroke-miterlimit:4;stroke-dasharray:none;stroke-opacity:1" />
    <path
       d="M 461.39654,130.00069 C 469.05263,130.07022 471.95447,124.49399 478.35075,124.57496 C 485.60953,125.03924 488.25703,128.86445 495.71086,129.68938 C 502.38722,129.61477 503.58205,124.17797 513.07471,123.47139 C 521.50251,123.63389 522.09868,130.49591 532.52318,129.65488 C 540.94021,129.34085 539.5657,123.81986 548.78159,123.05435"
       id="path3266"
       style="fill:none;fill-rule:evenodd;stroke:#000000;stroke-width:1.79999995;stroke-linecap:butt;stroke-linejoin:miter;stroke-miterlimit:4;stroke-dasharray:none;stroke-opacity:1" />
    <g
       transform="translate(369.59509,-3.7697847)"
       id="g3443">
      <path
         d="M 179.17642,2.03359 L 179.17642,124.91475 C 179.17642,171.447 139.45693,209.1736 90.48712,209.1736 C 41.48559,209.1736 1.77247,171.447 1.77247,124.91475 L 1.77247,2.03359 L 179.17642,2.03359 z"
         id="path3445"
         style="fill:none;fill-opacity:1;stroke:#1b1a1c;stroke-width:3.05345011;stroke-linecap:butt;stroke-linejoin:miter;stroke-miterlimit:4;stroke-dasharray:none;stroke-opacity:1" />
      <path
         d="M 91.185385,2.1766584 L 90.980485,208.90159"
         id="path3447"
         style="fill:none;fill-rule:evenodd;stroke:#1b1a1c;stroke-width:2;stroke-linecap:butt;stroke-linejoin:miter;stroke-miterlimit:4;stroke-dasharray:none;stroke-opacity:1" />
    </g>
  </g>
</svg>

<svg xmlns="http://www.w3.org/2000/svg" version="1.0" width="180.613" height="210.193"><path d="M90.31 209.91c-49.002 0-88.715-37.727-88.715-84.26V2.77h89.466c-.425.884.744 207.88-.751 207.14z" style="fill:#fff;fill-opacity:1;stroke:none;stroke-width:3.05345011;stroke-linecap:butt;stroke-linejoin:miter;stroke-miterlimit:4;stroke-dasharray:none;stroke-opacity:1"/><path d="M91.898 208.79c49.001 0 88.715-37.726 88.715-84.259V1.651H91.146c.426.884-.743 207.879.752 207.14z" style="fill:#0092c5;fill-opacity:1;stroke:none;stroke-width:3.05345011;stroke-linecap:butt;stroke-linejoin:miter;stroke-miterlimit:4;stroke-dasharray:none;stroke-opacity:1"/><path d="M280.645 204.154c-7.667-3.95-7.538-12.182-10.541-17.694-8.347 1.838-17.588-3.516-24.24 7.916-4.976-10.98 4.782-14.529 16.247-17.126-22.248-9.794-31.233-3.526-32.196 3.97-9.574-20.875 12.29-16.727 30.295-13.558 7.44-.136 12.955-6.352 11.278-20.164-4.1-5.02-11.077-8.027-14.265-9.399 1.876 12.367.863 20.742-18.077 19.533-14.71.185-14.831-12.884-31.374-20.641 12.28-6.258 17.441-25.129 33.64-25.23 14.163.526 14.372 8.515 13.192 18.97 4.947.693 12.524 4.22 17.47 6.742l.23-25.831c-8.245-11.53-18.195-15.317-26.44-21.153 3.872 13.928-10.367 18.62-17.198 17.162-16.572-3.539-16.248-17.705-29.304-30.024 17.074-5.471 17.09-17.047 39.081-15.83 13.793.1 15.064 17.049 7.546 23.544 9.385 6.83 19.444 8.51 26.112 17.159.418-.202.794-15.047.56-21.018-13.046-15.973-24.654-26.075-36.196-37.513-5.513 7.644-9.235 19.476-25.23 11.397-10.666-10.937-5.455-25.465-12.843-38.824 20.491 1.545 19.9-7.061 39.996.94 10.925 7.267 13.379 17.048 1.164 23.062 11.187 11.091 22.954 20.853 33.246 29.867.538-.63 1.508-17.515 1.348-25.517-.545.355-18.85 7.06-21.154-7.32-.427-12.697 18.688-24.744 26.243-35.862l1.41 202.442z" style="fill:#1b1a1c;fill-opacity:1;fill-rule:evenodd;stroke:#1b1a1c;stroke-width:2;stroke-linecap:butt;stroke-linejoin:miter;stroke-miterlimit:4;stroke-dasharray:none;stroke-opacity:1" transform="translate(-189.133 2.779)"/><path d="M235.748 40.824c-3.909 5.323-1.603 11.845-13.798 15.283-22.97 1.048-13.118-25.021-21.505-38.142 13.525 1.082 25.584-10.052 40.575 3.246 12.203 12.62-.905 15.091-5.272 19.613zM278.769 41.516c-5.073 2.23-9.814 5.48-15.849 5.147-5.611-.748-9.814-5.582-8.804-12.462 3.674-13.526 18.233-19.608 24.653-29.665v36.98zM242.602 85.945c8.58-5.678 9.119-16.265 2.844-19.099-22.858-10.999-28.49 8.353-43.752 11.108 13.223 10.477 9.367 22.314 27.091 28.58 16.737-1.215 17.91-9.676 13.817-20.589zM210.634 136.877c10.306-7.994 14.873-22.683 31.155-23.705 14.942-.222 12.664 11.592 11.378 19.1 4.647 9.921 4.769 20.61-1.896 23.433-21.344 8.827-27.136-11.672-40.637-18.828z" style="fill:#00a43f;fill-opacity:1;fill-rule:evenodd;stroke:none;stroke-width:1px;stroke-linecap:butt;stroke-linejoin:miter;stroke-opacity:1" transform="translate(-189.133 2.779)"/><path d="M216.675 26.486c23.033 11.165 37.904 29.75 56.4 45.04 1.314-18.119.556-37.275 6.027-51.652l1.046 182.367c-8.07-3.718-6.57-12.857-8.29-19.538-8.002 4.703-19.382 1.366-26.78 8.927-2.557-16.206 17.893-9.35 26.374-17.042-16.545 5.446-35.019-12.937-41.845 6.667-11.11-27.16 25.335-9.752 35.353-12.753 9.021-6.537 6.707-14.194 6.671-22.025-6.495-8.167-18.086-14.813-40.755-13.276 13.76-2.553 27.575-3.697 41.793 5.68l-.405-27.591c-17.31-19.083-37.42-26.959-58.43-31.244 24.796-.93 42.298 10.295 58.835 23.129l.406-21.506c-18.474-18.631-33.388-39.852-56.4-55.183z" style="fill:#00a43f;fill-opacity:1;fill-rule:evenodd;stroke:#1b1a1c;stroke-width:1.29999995;stroke-linecap:butt;stroke-linejoin:miter;stroke-miterlimit:4;stroke-dasharray:none;stroke-opacity:1" transform="translate(-189.133 2.779)"/><g><path d="M460.865 129.28c8.645.242 10.655-6.064 17.487-5.586 9.916.473 9.635 5.55 16.04 4.902 10.992.193 8.96-6.116 18.815-5.816 7.9.498 10.598 6.51 18.473 6.158 7.326.365 9.335-7.55 17.448-6.158l-1.106-60.591c-10.387 1.101-12.592 7.242-20.447 6.881-6.13.198-9.573-5.39-17.105-4.789-8.518-.244-10.285 5.96-18.665 5.701-7.425-.123-8.56-5.61-16.571-5.701-5.111-.766-6.69 4.17-14.748 4.75l.38 60.25z" style="fill:#fff;fill-rule:evenodd;stroke:none;stroke-width:1px;stroke-linecap:butt;stroke-linejoin:miter;stroke-opacity:1" transform="translate(-369.84 3.263)"/><path d="M460.494 88.445c7.656.07 8.89-4.673 15.287-4.592 7.258.464 9.49 5.4 16.943 6.225 6.676-.074 6.065-5.789 18.197-6.634 8.428.162 8.19 5.913 18.615 5.072 8.417-.314 9.127-6.252 18.343-7.018M460.702 107.911c7.656.07 8.89-4.673 15.287-4.592 7.259.464 9.49 5.401 16.943 6.226 6.677-.075 6.065-5.79 18.198-6.635 8.428.163 8.19 5.913 18.615 5.072 8.417-.314 9.126-6.252 18.342-7.017" style="fill:none;fill-rule:evenodd;stroke:#000;stroke-width:1.29999995;stroke-linecap:butt;stroke-linejoin:miter;stroke-miterlimit:4;stroke-dasharray:none;stroke-opacity:1" transform="translate(-369.84 3.263)"/><path d="M460.563 68.317c7.656.07 8.89-4.673 15.287-4.592 7.259.464 9.35 4.706 16.804 5.531 6.677-.074 6.205-5.094 18.337-5.94 8.428.163 10.552 5.496 17.503 4.655 8.417-.314 10.238-5.835 19.454-6.6M461.397 130c7.656.07 10.557-5.506 16.954-5.425 7.259.464 9.906 4.29 17.36 5.114 6.676-.074 7.871-5.511 17.364-6.218 8.428.163 9.024 7.025 19.448 6.184 8.417-.314 7.043-5.835 16.259-6.6" style="fill:none;fill-rule:evenodd;stroke:#000;stroke-width:1.79999995;stroke-linecap:butt;stroke-linejoin:miter;stroke-miterlimit:4;stroke-dasharray:none;stroke-opacity:1" transform="translate(-369.84 3.263)"/><path d="M179.176 2.034v122.88c0 46.533-39.72 84.26-88.689 84.26-49.001 0-88.715-37.727-88.715-84.26V2.035h177.404z" style="fill:none;fill-opacity:1;stroke:#1b1a1c;stroke-width:3.05345011;stroke-linecap:butt;stroke-linejoin:miter;stroke-miterlimit:4;stroke-dasharray:none;stroke-opacity:1" transform="translate(-.246 -.507)"/><path d="m91.185 2.177-.205 206.725" style="fill:none;fill-rule:evenodd;stroke:#1b1a1c;stroke-width:2;stroke-linecap:butt;stroke-linejoin:miter;stroke-miterlimit:4;stroke-dasharray:none;stroke-opacity:1" transform="translate(-.246 -.507)"/></g></svg>
